X: 55
T: Motet cycle Ave mundi domina &mdash; 4. Anima mea liquefacta est
C: Gaspar van Weerbeke
%%abc-version 2.0
%%abcx-abcm2ps-target-version 5.9.1 (29 Sep 2008)
%%abc-creator hum2abc beta
%%abcx-conversion-date 2022/03/06 13:05:59
%%abc-copyright Copyright 2021, Pavanello, Agnese
%%abc-edited-by Sapp, Craig Stuart
%%abc-edited-by Wissmann, Rolf
%%humdrum-veritas 1923394589
%%humdrum-veritas-data 683683723
%%linebreak <none>
%%barnumbers 0
L: 1/4
M: C|
N: Derived from Gas0301d-Ave_mundi_domina-Anima_mea_liquefacta_est.krn
%%staves [1 2 3 4]
V: 1 clef=treble
V: 2 clef=treble-8
V: 3 clef=treble-8
V: 4 clef=bass
K: F
[V:1] z8 | 
[V:2] z8 | 
[V:3] z8 | 
[V:4] G,,8- | 
[V:1] z8 | 
[V:2] G8- | 
[V:3] z8 | 
[V:4] G,,2>A,,2B,,2C,2- | 
[V:1] z8 | 
[V:2] G4^F4 | 
[V:3] z8 | 
[V:4] C,B,,A,,G,,A,,4 | 
[V:1] G8- | 
[V:2] G2>A2B2c2- | 
[V:3] z8 | 
[V:4] G,,2G,4C,2- | 
[V:1] G4^F4 | 
[V:2] cBAGA4 | 
[V:3] z8 | 
[V:4] C,2_E,2D,4 | 
[V:1] G4B4- | 
[V:2] G8 | 
[V:3] G8 | 
[V:4] G,,8 | 
[V:1] B4A4 | 
[V:2] z8 | 
[V:3] G4^F4 | 
[V:4] z8 | 
[V:1] G6F2 | 
[V:2] z8 | 
[V:3] G4B4- | 
[V:4] z8 | 
[V:1] D8- | 
[V:2] z8 | 
[V:3] B4B4- | 
[V:4] G,,8 | 
[V:1] D8 | 
[V:2] z8 | 
[V:3] B4B4 | 
[V:4] D,4D,4 | 
[V:1] z8 | 
[V:2] z8 | 
[V:3] A2c4A2- | 
[V:4] C,2_E,4C,2 | 
[V:1] z8 | 
[V:2] z8 | 
[V:3] A2G4^F2 | 
[V:4] D,2B,,2A,,4 | 
[V:1] G4G4 | 
[V:2] d8 | 
[V:3] G4z4 | 
[V:4] G,,8 | 
[V:1] B6A2 | 
[V:2] d4d4 | 
[V:3] G4G4 | 
[V:4] z4G,,4 | 
[V:1] G4F4 | 
[V:2] d8 | 
[V:3] B6A2 | 
[V:4] G,,4D,4 | 
[V:1] E4F2A2 | 
[V:2] c4d2AB | 
[V:3] G4F4 | 
[V:4] E,4D,2F,2 | 
[V:1] G4F2F2- | 
[V:2] c2e2d2c2- | 
[V:3] E4F2A2 | 
[V:4] C,4D,2F,2 | 
[V:1] F2E2F4 | 
[V:2] c4A4 | 
[V:3] G4F4 | 
[V:4] C,4D,4 | 
[V:1] F4F3G | 
[V:2] A4A4 | 
[V:3] z4d4 | 
[V:4] D,4D,3E, | 
[V:1] A2B4A2- | 
[V:2] F2z2d2f2- | 
[V:3] d8 | 
[V:4] F,2G,4F,2- | 
[V:1] A2B4A2 | 
[V:2] f2_e2f4 | 
[V:3] c2B2c4 | 
[V:4] F,2G,2F,4 | 
[V:1] B6AG | 
[V:2] d8 | 
[V:3] B4z4 | 
[V:4] B,,8- | 
[V:1] F2B4A2 | 
[V:2] f4_e2f2 | 
[V:3] d4c4 | 
[V:4] B,,4z2F,2 | 
[V:1] G2A4G2- | 
[V:2] _e2f2>_e2c2 | 
[V:3] B2c4G2 | 
[V:4] G,2F,4_E,2 | 
[V:1] G2^F2G4 | 
[V:2] d4B4 | 
[V:3] A4G4 | 
[V:4] D,4G,,4 | 
[V:1] z4G4 | 
[V:2] z4d4 | 
[V:3] z4B4 | 
[V:4] z4G,4 | 
[V:1] G8 | 
[V:2] d8 | 
[V:3] B8 | 
[V:4] G,8 | 
[V:1] !fermata!^F8 | 
[V:2] !fermata!d8 | 
[V:3] !fermata!A8 | 
[V:4] !fermata!D,8 | 
[V:1] A4B4 | 
[V:2] fedcB4 | 
[V:3] A4G4 | 
[V:4] F,4G,4 | 
[V:1] c4B2G2- | 
[V:2] f4d2_e2- | 
[V:3] A4B2c2- | 
[V:4] F,4G,2C,2- | 
[V:1] G2F4E2 | 
[V:2] e2c2c4 | 
[V:3] c2A2G4 | 
[V:4] C,2F,2C,4 | 
[V:1] !fermata!F8 | 
[V:2] A4!fermata!B4 | 
[V:3] !fermata!F8 | 
[V:4] D,4!fermata!B,,4 | 
[V:1] z8 | 
[V:2] c4d4 | 
[V:3] z8 | 
[V:4] F,4F,4 | 
[V:1] z8 | 
[V:2] f6f2 | 
[V:3] z8 | 
[V:4] F,4D,4 | 
[V:1] z8 | 
[V:2] e4d4 | 
[V:3] z8 | 
[V:4] C,4F,4 | 
[V:1] z8 | 
[V:2] c4f4 | 
[V:3] z8 | 
[V:4] E,4D,4 | 
[V:1] z8 | 
[V:2] e2d4c2- | 
[V:3] z8 | 
[V:4] C,2F,2G,2E,2 | 
[V:1] F4E4 | 
[V:2] c2=B2c4 | 
[V:3] z8 | 
[V:4] D,4C,4 | 
[V:1] D2>E2FG/A/B2- | 
[V:2] f4f2d2- | 
[V:3] z8 | 
[V:4] B,,4B,,2B,,2- | 
[V:1] B2A4G2 | 
[V:2] d2c2B4 | 
[V:3] z8 | 
[V:4] B,,2F,2G,4 | 
[V:1] A4A4 | 
[V:2] A8 | 
[V:3] z8 | 
[V:4] D,8 | 
[V:1] B4A4 | 
[V:2] z4d4 | 
[V:3] z4A4 | 
[V:4] G,4D,4 | 
[V:1] G4F2c2- | 
[V:2] d4c3d | 
[V:3] B4A4 | 
[V:4] G,4z4 | 
[V:1] c2B2A2G2- | 
[V:2] _e2>d2c4 | 
[V:3] G4F2c2- | 
[V:4] _E,4F,2C,2 | 
[V:1] G2F4E2 | 
[V:2] A2F2c4 | 
[V:3] c2A2G4 | 
[V:4] F,4C,4 | 
[V:1] !fermata!F8 | 
[V:2] A2F2!fermata!F4 | 
[V:3] !fermata!F8 | 
[V:4] D,4!fermata!B,,4 | 
[V:1] z8 | 
[V:2] z8 | 
[V:3] B4B4- | 
[V:4] G,,4G,,4- | 
[V:1] z8 | 
[V:2] z8 | 
[V:3] B2B2B4 | 
[V:4] G,,2G,,2D,4 | 
[V:1] z8 | 
[V:2] z8 | 
[V:3] A4G2A2- | 
[V:4] C,4B,,2C,2- | 
[V:1] z4A4 | 
[V:2] z4c4 | 
[V:3] A2G4^F2 | 
[V:4] C,2B,,2A,,4 | 
[V:1] B4A4 | 
[V:2] B4c4 | 
[V:3] G4A4 | 
[V:4] G,,4z4 | 
[V:1] G4F2_E2- | 
[V:2] d4c2B2- | 
[V:3] B4A2G2- | 
[V:4] z8 | 
[V:1] E2D4C2 | 
[V:2] B2A4G2 | 
[V:3] G2F2_E4 | 
[V:4] z8 | 
[V:1] D4d4- | 
[V:2] A4A4- | 
[V:3] D4z4 | 
[V:4] D,6D,2 | 
[V:1] d2d2d4- | 
[V:2] A2A2B4 | 
[V:3] d6d2 | 
[V:4] D,4G,4 | 
[V:1] d2cBA4 | 
[V:2] B4F2f2 | 
[V:3] d4c4 | 
[V:4] G,4A,4 | 
[V:1] B2c4B2- | 
[V:2] g4f2_e2 | 
[V:3] d2_e2d2B2 | 
[V:4] G,2_E,2B,2G,2 | 
[V:1] B2A2B4 | 
[V:2] f4!fermata!d4- | 
[V:3] c4B4 | 
[V:4] F,4!fermata!B,,4- | 
[V:1] !fermata!B4B4- | 
[V:2] d4g4- | 
[V:3] !fermata!B4d4- | 
[V:4] B,,4G,,4- | 
[V:1] B2B2B4 | 
[V:2] g2g2f4 | 
[V:3] d2d2d4 | 
[V:4] G,,2G,,2B,,4 | 
[V:1] A4G2A2- | 
[V:2] f4e2f2- | 
[V:3] c4B2c2- | 
[V:4] F,4G,2F,2- | 
[V:1] A2G4^F2 | 
[V:2] f2d2d4 | 
[V:3] c2B2A4 | 
[V:4] F,2G,2D,4 | 
[V:1] !fermata!G8 | 
[V:2] !fermata!d8 | 
[V:3] !fermata!G8 | 
[V:4] !fermata!G,,8 | 
[V:1] G4F4 | 
[V:2] B2AGA4 | 
[V:3] z8 | 
[V:4] G,,4D,4 | 
[V:1] G4B4- | 
[V:2] G4g4 | 
[V:3] z8 | 
[V:4] G,,8- | 
[V:1] B2B2c4 | 
[V:2] g4a4 | 
[V:3] G4F4 | 
[V:4] G,,4z4 | 
[V:1] B2d2>c2BA | 
[V:2] g2>f2d4- | 
[V:3] G4B4- | 
[V:4] G,,4G,,4 | 
[V:1] G4A3G | 
[V:2] d2cBA4 | 
[V:3] B2B2c4 | 
[V:4] G,,2G,2F,4 | 
[V:1] FED4G2- | 
[V:2] z2G2B2c2 | 
[V:3] d4B2G2 | 
[V:4] D,2G,4F,E, | 
[V:1] G2^F2G4 |]  
[V:2] d4d4 |]  
[V:3] A4G4 |]  
[V:4] D,4G,,4 |]  


